svg/logo/spotify_line.svg

<?xml version="1.0" encoding="UTF-8"?>
<svg width="24px" height="24px" viewBox="0 0 24 24" version="1.1" xmlns="http://www.w3.org/2000/svg" xmlns:xlink="http://www.w3.org/1999/xlink">
    <title>spotify_line</title>
    <g id="页面-1" stroke="none" stroke-width="1" fill="none" fill-rule="evenodd">
        <g id="Logo" transform="translate(-720.000000, -96.000000)" fill-rule="nonzero">
            <g id="spotify_line" transform="translate(720.000000, 96.000000)">
                 <path d="M24,0 L24,24 L0,24 L0,0 L24,0 Z M12.5934901,23.257841 L12.5819402,23.2595131 L12.5108777,23.2950439 L12.4918791,23.2987469 L12.4918791,23.2987469 L12.4767152,23.2950439 L12.4056548,23.2595131 C12.3958229,23.2563662 12.3870493,23.2590235 12.3821421,23.2649074 L12.3780323,23.275831 L12.360941,23.7031097 L12.3658947,23.7234994 L12.3769048,23.7357139 L12.4804777,23.8096931 L12.4953491,23.8136134 L12.4953491,23.8136134 L12.5071152,23.8096931 L12.6106902,23.7357139 L12.6232938,23.7196733 L12.6232938,23.7196733 L12.6266527,23.7031097 L12.609561,23.275831 C12.6075724,23.2657013 12.6010112,23.2592993 12.5934901,23.257841 L12.5934901,23.257841 Z M12.8583906,23.1452862 L12.8445485,23.1473072 L12.6598443,23.2396597 L12.6498822,23.2499052 L12.6498822,23.2499052 L12.6471943,23.2611114 L12.6650943,23.6906389 L12.6699349,23.7034178 L12.6699349,23.7034178 L12.678386,23.7104931 L12.8793402,23.8032389 C12.8914285,23.8068999 12.9022333,23.8029875 12.9078286,23.7952264 L12.9118235,23.7811639 L12.8776777,23.1665331 C12.8752882,23.1545897 12.8674102,23.1470016 12.8583906,23.1452862 L12.8583906,23.1452862 Z M12.1430473,23.1473072 C12.1332178,23.1423925 12.1221763,23.1452606 12.1156365,23.1525954 L12.1099173,23.1665331 L12.0757714,23.7811639 C12.0751323,23.7926639 12.0828099,23.8018602 12.0926481,23.8045676 L12.108256,23.8032389 L12.3092106,23.7104931 L12.3186497,23.7024347 L12.3186497,23.7024347 L12.3225043,23.6906389 L12.340401,23.2611114 L12.337245,23.2485176 L12.337245,23.2485176 L12.3277531,23.2396597 L12.1430473,23.1473072 Z" id="MingCute" fill-rule="nonzero"></path>
                <path d="M12,2 C17.5228,2 22,6.47715 22,12 C22,17.5228 17.5228,22 12,22 C6.47715,22 2,17.5228 2,12 C2,6.47715 6.47715,2 12,2 Z M12,4 C7.58172,4 4,7.58172 4,12 C4,16.4183 7.58172,20 12,20 C16.4183,20 20,16.4183 20,12 C20,7.58172 16.4183,4 12,4 Z M7.72828,14.1113 C9.14617,13.7852 10.6632,13.7887 11.9748,13.9922 C13.2512,14.1903 14.4891,14.6025 15.2517,15.2256 C15.6794,15.575 15.7429,16.205 15.3935,16.6327 C15.0709769,17.0275 14.5093627,17.1119757 14.0884713,16.8478234 L13.9864,16.7745 C13.63,16.4833 12.8083,16.1455 11.6681,15.9686 C10.563,15.7971 9.30621,15.8006 8.17648,16.0604 C7.63824,16.1842 7.10158,15.8482 6.97781,15.3099 C6.85405,14.7717 7.19004,14.235 7.72828,14.1113 Z M7.20759,11.3799 C10.4666,10.4712 14.2588,10.9854 16.5709,12.4052 C17.0415,12.6942 17.1888,13.31 16.8998,13.7807 C16.6108,14.2513 15.995,14.3986 15.5243,14.1095 C13.7412,13.0146 10.5334,12.5288 7.74479,13.3064 C7.2128,13.4548 6.66128,13.1438 6.51294,12.6118 C6.36459,12.0798 6.6756,11.5283 7.20759,11.3799 Z M6.73115,8.51383 C10.4902,7.4646 14.2265,8.00853 17.3965,9.37757 C17.9035,9.59654 18.137,10.1851 17.918,10.6921 C17.6991,11.1991 17.1105,11.4326 16.6035,11.2137 C13.7735,9.99147 10.5098,9.53558 7.26885,10.4402 C6.73689,10.5887 6.1853,10.2778 6.03682,9.74586 C5.88834,9.21391 6.1992,8.66231 6.73115,8.51383 Z" id="形状" fill="#09244B"></path>
            </g>
        </g>
    </g>
</svg>

<svg xmlns="http://www.w3.org/2000/svg" width="24" height="24"><g fill="none" fill-rule="nonzero"><path d="M24 0v24H0V0h24ZM12.593 23.258l-.011.002-.071.035-.02.004-.014-.004-.071-.035c-.01-.004-.019-.001-.024.005l-.004.01-.017.428.005.02.01.013.104.074.015.004.012-.004.104-.074.012-.016.004-.017-.017-.427c-.002-.01-.009-.017-.017-.018Zm.265-.113-.013.002-.185.093-.01.01-.003.011.018.43.005.012.008.007.201.093c.012.004.023 0 .029-.008l.004-.014-.034-.614c-.003-.012-.01-.02-.02-.022Zm-.715.002a.023.023 0 0 0-.027.006l-.006.014-.034.614c0 .012.007.02.017.024l.015-.002.201-.093.01-.008.004-.011.017-.43-.003-.012-.01-.01-.184-.092Z"/><path fill="#09244B" d="M12 2c5.523 0 10 4.477 10 10s-4.477 10-10 10S2 17.523 2 12 6.477 2 12 2Zm0 2a8 8 0 1 0 0 16 8 8 0 0 0 0-16ZM7.728 14.111c1.418-.326 2.935-.322 4.247-.119 1.276.198 2.514.61 3.277 1.234a1 1 0 0 1-1.164 1.622l-.102-.073c-.356-.292-1.178-.63-2.318-.806-1.105-.172-2.362-.168-3.492.091a1 1 0 1 1-.448-1.949Zm-.52-2.731c3.259-.909 7.05-.395 9.363 1.025a1 1 0 0 1-1.047 1.705c-1.783-1.095-4.99-1.581-7.78-.804a1 1 0 1 1-.536-1.926ZM6.73 8.514c3.76-1.05 7.496-.505 10.666.864a1 1 0 0 1-.793 1.836c-2.83-1.223-6.094-1.678-9.335-.774a1 1 0 1 1-.538-1.926Z"/></g></svg>
